X:1
T:Apia, 76.76 D
T:Apia, 76.76 D
T:Thomas Martin Towne, 1894
T:Public Domain Courtesy of the Cyber Hymnal™
C:Thomas Martin Towne, 1894
Z:Public Domain
Z:Courtesy of the Cyber Hymnal™
%%score ( 1 2 ) ( 3 4 )
L:1/8
Q:1/4=103
M:6/8
K:Bb
V:1 treble 
V:2 treble 
V:3 bass 
V:4 bass 
V:1
 [DF] | [DB]2 [DB] ([DB][CA])[DB] | [Ec]3 [CF]2 F | [Fd]2 [Fd] (dc)[FB] | [Fc]3- [Fc]2 [EF] | %5
 [DB]2 [DB] ([DB][Ec])[Fd] | [EG]3 [GB]2 [Ge] | ([Fd][Ec])[DB] ([Ec][DB])[CA] | [DB]3- [DB]2 F | %9
 [Fc]2 [Fc] (cd)[Fe] | [Fd]3 [FB]2 [Fd] | [Fc]2 [Fc] [=Ec]2 [Ed] | [Fc]3- [Fc]2 F | %13
 ([Fd][=E^c])[Fd] (Bc)[=AB] | G3 [Gc]2 [Ge] | ([Fd][Ec])[DB] ([Ec][DB])[CA] | [DB]3- [DB]2 |] %17
V:2
 x | x6 | x5 F | x3 F2 x | x6 | x6 | x6 | x6 | x5 F | x3 F2 x | x6 | x6 | x5 F | x3 _A2 x | G3 x3 | %15
 x6 | x5 |] %17
V:3
 [B,,B,] | [B,,B,]2 [B,,B,] [B,,B,]2 [B,,B,] | [F,A,]3 [F,A,]2 [F,A,] | %3
 B,2 B, ([B,,B,][C,A,])[D,B,] | [F,A,]3- [F,A,]2 [F,A,] | B,2 B, B,2 B, | [E,B,]3 [E,E]2 [E,B,] | %7
 (B,F,)[F,B,] (A,B,)F, | [B,,F,]3- [B,,F,]2 F, | [F,A,]2 [F,A,] (A,B,)[F,C] | B,3 [B,,D]2 [B,,B,] | %11
 [C,A,]2 [C,A,] [C,A,]2 [C,A,] | [F,A,]3- [F,A,]2 [F,A,] | B,2 B, [B,D]2 [D,B,] | %14
 [E,B,]3 [E,E]2 [C,B,] | (B,F,)[F,B,] (A,B,)F, | [B,,F,]3- [B,,F,]2 |] %17
V:4
 x | x6 | x6 | B,2 B, x3 | x6 | B,2 B, B,2 B, | x6 | F,2 F,2 F, x | x5 F, | x3 F,2 x | B,3 x3 | %11
 x6 | x6 | B,2 B, x3 | x6 | F,2 F,2 F, x | x5 |] %17

